X:1
T:Lebanon
T:William Moore, 1826 A minor              Alto by William Hauser, 1848
T:Transcribed from Moore's Columbian Harmony, 1826
T:Anonymous author First published 1823                  76. 76. 76. 76. 
%%score [ 1 2 3 4 ]
L:1/8
Q:1/4=110
M:4/4
K:C
V:1 treble nm="Tr." snm="Tr."
V:2 treble nm="A." snm="C."
V:3 treble-8 nm="T." snm="T."
V:4 bass nm="B." snm="B."
V:1
"_Drooping souls, no longer grieve,  Heaven is propitious;\nIf  in  Christ you  do  believe,  You will find him precious.""_1.{" c2 BA e3 e | %1
 cd cA B4 | c2 cA d2 B2 | A4"_}" A4 :: %4
"_Jesus, he is passing by.  Calling mourners to him;  He has died for you and me.  Now look up and view him." A2 B2 c3 d | %5
 d2 e2 e4 | A2 B2 c2 ce | d4 d4 | e2 d2 c2 e2 | ge ec B4 | A3 B d2 B2 |1 A4 A4 :|2 A4 A4- | A8 |] %14
V:2
"_From his hands, his feet, his side,  Runs the healing lotion;\nSee   the  con–so–la–ting  tide,    Boundless as the ocean:""_2.{" E2 G2 G3 B | %1
 AG A2 G4 | E2 GA B2 G2 | E4"_}" E4 :: %4
"_See the healing waters move  For the sick and dying;  Now resolve to gain his love,  Or to perish trying." E2 G2 A3 G | %5
 G2 E2 E4 | E2 G2 A2 E2 | G4 E4 | E2 G2 c2 B2 | cB GA G4 | c3 B A2 G2 |1 E4 E4 :|2 E4 E4- | E8 |] %14
V:3
"_Grace's store is always free.  Drooping souls to gladden;\nJesus calls, Come unto me,  Ye weary, heavy laden:""_3.{" c2 dc B3 G | %1
 AB AG E4 | G2 GE G2 B2 | A4"_}" E4 :: %4
"_Though your sins like mountains high Rise, and reach to heaven, Soon as you on me rely,  All shall be forgiven." c2 d2 e3 B | %5
 d2 B2 A4 | c2 d2 e2 ec | (d3 B) A4 | c2 d2 e2 g2 | ed BA (G3 B) | A3 G A2 B2 |1 A4 E4 :|2 A4 E4- | %13
 E8 |] %14
V:4
"_Now  methinks  I  hear one say,  I will go and prove him;\nIf     he   takes   my   sins   away,   Surely  I  shall  love him:""_4.{""_5. Streaming mercy, how it flows:\nNow l know I feel it:\nTongue cannot the half disclose,\nYet I long to tell it.\nJesus' blood has healed my wound;\nO the wondrous story!\nI was lost, but now am found;\nGlory: glory: glory!""____________________________\nA folk hymn (Jackson 1953a, No. 66)" A,2 G,A, E,3 E, | %1
 D,C, D,E, G,4 | E,2 D,2 C,D, E,2 | A,,4"_}" A,,4 :: %4
"_Yes! I see the Father smile,  Now I lose my burden;  All  is  grace,  for  I  am  vile,       Yet be seals my pardon." C2 B,2"_6. Glory to my Savior's name!\nSaints are bound to love him;\nSinners, you may do the same,\nOnly come and prove him.\nHasten to the Savior's blood,\nFeel it and deciare it:\nO that I could sing so loud,\nThat all the world might hear it." A,3 G, | %5
 B,2 A,2 E,4 | C2 B,2 A,2 G,2 | D,4 E,4 | A,2 B,2 A,2 E,2 | %9
 E,D, C,D,"_7. If no greater joys are known\nIn the upper region,\nI will try to follow on\nIn this pure religion:\nHeaven's here, and heaven's there,\nGlory's here and yonder;\nBrightest seraphs shout his praise,\nWhile all the angels wonder." E,4 | %10
 A,3 E, C,D, E,2 |1 A,,4 A,,4 :|2 A,,4 A,,4- | A,,8 |] %14

